src/pages/Board/Slider/img/2.svg

<?xml version="1.0" encoding="UTF-8"?>
<svg fill="none" viewBox="0 0 133 134" xmlns="http://www.w3.org/2000/svg">
<g filter="url(#a)">
<circle cx="65.5" cy="64.543" r="47.5" fill="#fff"/>
</g>
<g clip-path="url(#b)">
<path d="m77.802 32.806h-23.967c-2.5966 0-4.7016 2.0557-4.7016 4.5916v54.176c0 2.5358 2.105 4.5916 4.7016 4.5916h23.967c2.5967 0 4.7016-2.0558 4.7016-4.5916v-54.176c0-2.5359-2.1049-4.5916-4.7016-4.5916z" fill="#fff"/>
<path d="m77.802 32.806h-3.0952s-1.6687 46.186-10.113 63.359h13.208c2.5966 0 4.7016-2.0558 4.7016-4.5916v-54.176c0-2.5359-2.105-4.5916-4.7016-4.5916z" fill="#CCEFDB"/>
<path d="m58.259 32.806h14.461v1.2622c-0.0012 0.227-0.0486 0.4514-0.1395 0.6603s-0.2235 0.398-0.39 0.5564c-0.1665 0.1583-0.3636 0.2827-0.5798 0.3659s-0.4472 0.1236-0.6796 0.1187h-10.92c-0.4645 0-0.91-0.1802-1.2385-0.501-0.3284-0.3207-0.5129-0.7558-0.5129-1.2094v-1.2531z" fill="#00C65E"/>
<path d="m70.93 36.484h-10.92c-0.6557 0-1.2846-0.2544-1.7483-0.7073-0.4637-0.4528-0.7242-1.067-0.7242-1.7075v-1.9756h15.922v1.9756c0 0.3218-0.0657 0.6404-0.1935 0.937-0.1277 0.2966-0.3149 0.5652-0.5505 0.7902s-0.5148 0.4017-0.8213 0.5197c-0.3065 0.1181-0.6341 0.1752-0.9635 0.1679zm-11.941-2.9727v0.5579c0 0.2645 0.1075 0.518 0.299 0.705 0.1914 0.187 0.4511 0.292 0.7218 0.292h10.92c0.2708 0 0.5304-0.105 0.7219-0.292 0.1914-0.187 0.299-0.4405 0.299-0.705v-0.5579h-12.962z" fill="#00C65E"/>
<path d="m77.804 97.08h-23.967c-1.4904 0-2.9197-0.5782-3.9735-1.6074-1.0539-1.0292-1.6459-2.4251-1.6459-3.8806v-54.194c0-1.4556 0.592-2.8514 1.6459-3.8806 1.0538-1.0292 2.4831-1.6074 3.9735-1.6074h23.967c1.4904 0 2.9197 0.5782 3.9735 1.6074 1.0539 1.0292 1.6459 2.425 1.6459 3.8806v54.176c0.0025 0.7223-0.1411 1.4379-0.4224 2.1058-0.2813 0.668-0.6948 1.2751-1.2168 1.7867-0.5221 0.5115-1.1424 0.9174-1.8254 1.1944-0.683 0.2769-1.4153 0.4194-2.1548 0.4194zm-23.967-63.359c-0.9936 0-1.9465 0.3855-2.649 1.0716-0.7026 0.6861-1.0973 1.6167-1.0973 2.5871v54.194c0 0.9704 0.3947 1.901 1.0973 2.5871 0.7025 0.6861 1.6554 1.0716 2.649 1.0716h23.967c0.9936 0 1.9464-0.3855 2.649-1.0716s1.0973-1.6167 1.0973-2.5871v-54.176c0-0.9704-0.3947-1.901-1.0973-2.5871s-1.6554-1.0716-2.649-1.0716l-23.967-0.0183z" fill="#00C65E"/>
<rect x="52.463" y="82.059" width="26.711" height="9.427" rx="1" fill="#FFB762"/>
<rect x="52.463" y="69.68" width="26.711" height="7.4341" rx="1" fill="#FFB762"/>
<rect x="52.465" y="42.418" width="26.711" height="1.465" rx=".7325" fill="#FFB762"/>
<rect x="52.465" y="49.233" width="26.711" height="1.465" rx=".7325" fill="#FFB762"/>
<rect x="52.465" y="56.049" width="16.65" height="1.465" rx=".7325" fill="#FFB762"/>
<rect x="52.465" y="62.864" width="13.374" height="1.465" rx=".7325" fill="#FFB762"/>
<path d="m40.639 45.36 6.634-1.6097-6.7223-1.6269-1.6129-6.3524-1.6128 6.3524-6.7224 1.6269 6.6399 1.6097 1.6953 6.6916 1.7012-6.6916z" fill="#00C65E"/>
<path d="m90.216 82.302 8.0302-1.9484-8.1371-1.9693-1.9524-7.6893-1.9523 7.6893-8.1371 1.9693 8.0302 1.9484 2.0592 8.1 2.0593-8.1z" fill="#FFF06E"/>
</g>
<defs>
<filter id="a" x="0" y=".042969" width="133" height="133" color-interpolation-filters="sRGB" filterUnits="userSpaceOnUse">
<feFlood flood-opacity="0" result="BackgroundImageFix"/>
<feColorMatrix in="SourceAlpha" result="hardAlpha" values="0 0 0 0 0 0 0 0 0 0 0 0 0 0 0 0 0 0 127 0"/>
<feMorphology in="SourceAlpha" operator="dilate" radius="3" result="effect1_dropShadow_5137_18145"/>
<feOffset dx="1" dy="2"/>
<feGaussianBlur stdDeviation="8"/>
<feColorMatrix values="0 0 0 0 0.211765 0 0 0 0 0.227451 0 0 0 0 0.270588 0 0 0 0.08 0"/>
<feBlend in2="BackgroundImageFix" result="effect1_dropShadow_5137_18145"/>
<feBlend in="SourceGraphic" in2="effect1_dropShadow_5137_18145" result="shape"/>
</filter>
<clipPath id="b">
<rect transform="translate(28 26.995)" width="75" height="75" fill="#fff"/>
</clipPath>
</defs>
</svg>

<svg width="133" height="134" viewBox="0 0 133 134" fill="none" xmlns="http://www.w3.org/2000/svg">
<g filter="url(#filter0_d_5137_18145)">
<circle cx="65.5" cy="64.543" r="47.5" fill="white"/>
</g>
<g clip-path="url(#clip0_5137_18145)">
<path d="M77.8021 32.8062H53.8354C51.2388 32.8062 49.1338 34.8619 49.1338 37.3978V91.5735C49.1338 94.1093 51.2388 96.1651 53.8354 96.1651H77.8021C80.3988 96.1651 82.5037 94.1093 82.5037 91.5735V37.3978C82.5037 34.8619 80.3988 32.8062 77.8021 32.8062Z" fill="white"/>
<path d="M77.8023 32.8062H74.7071C74.7071 32.8062 73.0384 78.9922 64.5942 96.1651H77.8023C80.3989 96.1651 82.5039 94.1093 82.5039 91.5735V37.3978C82.5039 34.8619 80.3989 32.8062 77.8023 32.8062Z" fill="#CCEFDB"/>
<path d="M58.2593 32.8064H72.7199V34.0686C72.7187 34.2956 72.6713 34.52 72.5804 34.7289C72.4895 34.9378 72.3569 35.1269 72.1904 35.2853C72.0239 35.4436 71.8268 35.568 71.6106 35.6512C71.3944 35.7344 71.1634 35.7748 70.931 35.7699H60.0107C59.5462 35.7699 59.1007 35.5897 58.7722 35.2689C58.4438 34.9482 58.2593 34.5131 58.2593 34.0595V32.8064Z" fill="#00C65E"/>
<path d="M70.9305 36.4837H60.0101C59.3544 36.4837 58.7255 36.2293 58.2618 35.7764C57.7981 35.3236 57.5376 34.7094 57.5376 34.0689V32.0933H73.4593V34.0689C73.4593 34.3907 73.3936 34.7093 73.2658 35.0059C73.1381 35.3025 72.9509 35.5711 72.7153 35.7961C72.4797 36.0211 72.2005 36.1978 71.894 36.3158C71.5875 36.4339 71.2599 36.491 70.9305 36.4837ZM58.9893 33.511V34.0689C58.9893 34.3334 59.0968 34.5869 59.2883 34.7739C59.4797 34.9609 59.7394 35.0659 60.0101 35.0659H70.9305C71.2013 35.0659 71.4609 34.9609 71.6524 34.7739C71.8438 34.5869 71.9514 34.3334 71.9514 34.0689V33.511H58.9893Z" fill="#00C65E"/>
<path d="M77.8035 97.0801H53.8367C52.3463 97.0801 50.917 96.5019 49.8632 95.4727C48.8093 94.4435 48.2173 93.0476 48.2173 91.5921V37.3982C48.2173 35.9426 48.8093 34.5468 49.8632 33.5176C50.917 32.4884 52.3463 31.9102 53.8367 31.9102H77.8035C79.2939 31.9102 80.7232 32.4884 81.777 33.5176C82.8309 34.5468 83.4229 35.9426 83.4229 37.3982V91.5738C83.4254 92.2961 83.2818 93.0117 83.0005 93.6796C82.7192 94.3476 82.3057 94.9547 81.7837 95.4663C81.2616 95.9778 80.6413 96.3837 79.9583 96.6607C79.2753 96.9376 78.543 97.0801 77.8035 97.0801ZM53.8367 33.7212C52.8431 33.7212 51.8902 34.1067 51.1877 34.7928C50.4851 35.4789 50.0904 36.4095 50.0904 37.3799V91.5738C50.0904 92.5442 50.4851 93.4748 51.1877 94.1609C51.8902 94.847 52.8431 95.2325 53.8367 95.2325H77.8035C78.7971 95.2325 79.7499 94.847 80.4525 94.1609C81.1551 93.4748 81.5498 92.5442 81.5498 91.5738V37.3982C81.5498 36.4278 81.1551 35.4972 80.4525 34.8111C79.7499 34.125 78.7971 33.7395 77.8035 33.7395L53.8367 33.7212Z" fill="#00C65E"/>
<rect x="52.4634" y="82.0593" width="26.7107" height="9.42696" rx="1" fill="#FFB762"/>
<rect x="52.4634" y="69.6797" width="26.7107" height="7.43408" rx="1" fill="#FFB762"/>
<rect x="52.4653" y="42.418" width="26.7107" height="1.46499" rx="0.732496" fill="#FFB762"/>
<rect x="52.4653" y="49.2334" width="26.7107" height="1.46499" rx="0.732496" fill="#FFB762"/>
<rect x="52.4653" y="56.0488" width="16.6505" height="1.46499" rx="0.732496" fill="#FFB762"/>
<rect x="52.4653" y="62.8643" width="13.3739" height="1.46499" rx="0.732496" fill="#FFB762"/>
<path d="M40.6394 45.3595L47.2734 43.7498L40.5511 42.1229L38.9382 35.7705L37.3254 42.1229L30.603 43.7498L37.2429 45.3595L38.9382 52.0511L40.6394 45.3595Z" fill="#00C65E"/>
<path d="M90.2156 82.3021L98.2458 80.3537L90.1087 78.3844L88.1563 70.6951L86.204 78.3844L78.0669 80.3537L86.0971 82.3021L88.1563 90.4021L90.2156 82.3021Z" fill="#FFF06E"/>
</g>
<defs>
<filter id="filter0_d_5137_18145" x="0" y="0.0429688" width="133" height="133" filterUnits="userSpaceOnUse" color-interpolation-filters="sRGB">
<feFlood flood-opacity="0" result="BackgroundImageFix"/>
<feColorMatrix in="SourceAlpha" type="matrix" values="0 0 0 0 0 0 0 0 0 0 0 0 0 0 0 0 0 0 127 0" result="hardAlpha"/>
<feMorphology radius="3" operator="dilate" in="SourceAlpha" result="effect1_dropShadow_5137_18145"/>
<feOffset dx="1" dy="2"/>
<feGaussianBlur stdDeviation="8"/>
<feColorMatrix type="matrix" values="0 0 0 0 0.211765 0 0 0 0 0.227451 0 0 0 0 0.270588 0 0 0 0.08 0"/>
<feBlend mode="normal" in2="BackgroundImageFix" result="effect1_dropShadow_5137_18145"/>
<feBlend mode="normal" in="SourceGraphic" in2="effect1_dropShadow_5137_18145" result="shape"/>
</filter>
<clipPath id="clip0_5137_18145">
<rect width="75" height="75" fill="white" transform="translate(28 26.9951)"/>
</clipPath>
</defs>
</svg>
